X:1
T:Wet Hands
T:Wet Hands
T:C418
C:C418
%%score 1 2
L:1/8
Q:1/4=110
M:4/4
K:A
V:1 bass nm="Violoncello" snm="Vc."
V:2 treble nm="Marimba" snm="Mrm."
V:1
 z2 z2 z4 | z2 z2 z4 | z8 | z8 | z8 | z8 | z8 | z8 | G,4 z4 | z4 A,4 | F,4 z4 | z4 E,2 F,2 | %12
 G,4 z4 | z4 B,2 C2 | z2 F,4 z2 | z4 C,2 E,2 | =G,4 F,4 | D,4 A,,2 B,,2- | B,,2 z2 z4 | z8 | %20
 =G,4 F,4 | D,4 A,,2 B,,2- | B,,2 z2 z4 | z2 z2 A,,2 z2 | E,,2 z2 z4 | z8 | z8 | z2 E,2 A,2 C2 | %28
 z2 z2 z4 | D4 C4 | A,4 E,2 F,2- | F,2 z2 z4 | z2 z2 B,2 C2 | D4 C2 D2 | z2 F2 z2 C2 | z2 z2 z4 | %36
 z2 z2 B,,2 A,,2 | B,,2 z2 z4 | z8 | z8 | z8 | =G,2 F,2 E,2 D,2 | E,2 D,2 E,2 F,2 | z2 E,2 z2 z2 | %44
 A,2 z2 z4 | G,2 E,2 B,,2 G,,2 | z8 | B,2 G,2 E,2 B,,2 | z8 | z8 | z8 | z8 | z8 | z8 | z8 | z8 | %56
 z8 |] %57
V:2
 A2 c2 a2 b2 | c'2 b2 a2 e2 | d2 f2 c'2 e'2 | c'2 a2 z2 z2 | A2 c2 a2 b2 | c'2 b2 a2 e2 | %6
 d2 f2 c'2 e'2 | c'2 a2 z4 | A2 c2 a2 b2 | c'2 b2 a2 e2 | d2 f2 c'2 e'2 | c'2 a2 z4 | A2 c2 a2 b2 | %13
 c'2 b2 a2 e2 | d2 f2 c'2 e'2 | c'2 a2 z4 | =G2 B2 d2 f2 | a2 f2 d2 B2 | =G2 B2 d2 f2 | a2 z2 z4 | %20
 =G2 B2 d2 f2 | a2 f2 d2 B2 | =G2 B2 d2 f2 | a2 z2 z4 | A2 c2 a2 b2 | c'2 b2 a2 e2 | A2 c2 a2 b2 | %27
 c'2 z2 z4 | z8 | B2 d2 f2 a2 | c'2 z2 z4 | B2 d2 f2 a2 | c'2 z2 z4 | =G2 B2 d2 =g2 | a2 z2 z4 | %35
 e2 z2 z4 | z8 | E2 G2 B2 e2 | g2 e2 B2 G2 | E2 G2 B2 e2 | g2 e2 A2 z2 | G2 B2 d2 f2 | %42
 a2 f2 d2 B2 | A2 c2 e2 a2 | c'2 b2 a2 e2 | E2 G2 B2 e2 | g2 z4 z2 | E2 G2 B2 e2 | g2 z4 z2 | z8 | %50
 z8 | z8 | z2 z2 z4 | z8 | z2 z2 z2 z2 | z2 z2 z4 | z2 z2 z2 z2 |] %57

